img/icon/prof-nav-2.svg

<svg width="24" height="24" viewBox="0 0 24 24" fill="none" xmlns="http://www.w3.org/2000/svg">
<path d="M4 11.9064V8.09139C4 6.84339 4.773 5.72539 5.94 5.28439L14.293 2.13039C15.602 1.63739 17 2.60339 17 4.00239V7.35239" stroke="#848E9F" stroke-width="1.5" stroke-linecap="round" stroke-linejoin="round"/>
<path d="M17.249 14.1006C17.111 14.1016 17 14.2136 17 14.3516C17 14.4896 17.112 14.6016 17.25 14.6006C17.388 14.6006 17.5 14.4886 17.5 14.3506C17.5 14.2126 17.388 14.1006 17.249 14.1006Z" stroke="#848E9F" stroke-width="1.5" stroke-linecap="round" stroke-linejoin="round"/>
<path d="M10.662 20.9996H18C19.65 20.9996 21 19.6496 21 17.9996V10.3506C21 8.69359 19.657 7.35059 18 7.35059H6C4.895 7.35059 4 8.24559 4 9.35059V12.2566" stroke="#848E9F" stroke-width="1.5" stroke-linecap="round" stroke-linejoin="round"/>
<path d="M7.5 22C4.463 22 2 19.537 2 16.5C2 13.463 4.463 11 7.5 11C10.538 11 13 13.463 13 16.5C13 19.537 10.538 22 7.5 22Z" stroke="#848E9F" stroke-width="1.5" stroke-linecap="round" stroke-linejoin="round"/>
<path d="M9.944 15.2783L6.888 18.3343L5.056 16.5003" stroke="#848E9F" stroke-width="1.5" stroke-linecap="round" stroke-linejoin="round"/>
</svg>

<svg width="24" height="24" fill="none" xmlns="http://www.w3.org/2000/svg"><path d="M4 11.906V8.091c0-1.248.773-2.366 1.94-2.807l8.353-3.154A2 2 0 0 1 17 4.002v3.35m.249 6.748a.25.25 0 0 0-.249.252.25.25 0 1 0 .249-.251z" stroke="#848E9F" stroke-width="1.5" stroke-linecap="round" stroke-linejoin="round"/><path d="M10.662 21H18c1.65 0 3-1.35 3-3v-7.65a3 3 0 0 0-3-3H6a2 2 0 0 0-2 2v2.907" stroke="#848E9F" stroke-width="1.5" stroke-linecap="round" stroke-linejoin="round"/><path d="M7.5 22a5.5 5.5 0 1 1 .001-11.001A5.5 5.5 0 0 1 7.5 22z" stroke="#848E9F" stroke-width="1.5" stroke-linecap="round" stroke-linejoin="round"/><path d="M9.944 15.278l-3.056 3.056L5.056 16.5" stroke="#848E9F" stroke-width="1.5" stroke-linecap="round" stroke-linejoin="round"/></svg>
